X:5
T: The New Custom House
D:John Williams - Steam
M: 4/4
L: 1/8
R: reel
K: Dmix
Z: Jeff Welty (in process), 2003
|:ADD/E/D EGAB|cAGE CDEG|ADD/E/D EGAB|c3e dcAG|
ADD/E/D EGAB|cAGE CDEG|ADD/E/D EGAB|cAGE EDD2 :|
|:Add^c d2cd|ed^cd efge|Add^c d2cd|eaag ed^cd|
Add^c d2cd|ed^cd efgb|a2ba ge^cd|eaag ed^cd:|
